; generated by Slic3r 1.2.9 on 2020-02-12 at 23:11:42

; external perimeters extrusion width = 0.50mm
; perimeters extrusion width = 0.72mm
; infill extrusion width = 0.72mm
; solid infill extrusion width = 0.72mm
; top infill extrusion width = 0.72mm

M107
M104 S200 ; set temperature
G28 ; home all axes
G1 Z5 F5000 ; lift nozzle

M109 S200 ; wait for temperature to be reached
G21 ; set units to millimeters
G90 ; use absolute coordinates
M82 ; use absolute distances for extrusion
G92 E0
G1 Z0.350 F7800.000
G1 E-2.00000 F2400.00000
G92 E0
G1 X57.101 Y72.958 F7800.000
G1 E2.00000 F2400.00000
G1 X57.320 Y72.786 E2.00861 F1800.000
G1 X67.597 Y67.781 E2.36229
G1 X68.885 Y67.206 E2.40596
G1 X70.031 Y66.776 E2.44381
G1 X70.838 Y66.516 E2.47006
G1 X71.918 Y66.224 E2.50467
G1 X73.217 Y65.946 E2.54576
G1 X74.426 Y65.762 E2.58362
G1 X75.644 Y65.648 E2.62147
G1 X77.055 Y65.600 E2.66513
G1 X119.103 Y65.605 E3.96617
G1 X120.193 Y65.664 E3.99995 F1800.000
G1 X120.786 Y65.731 E4.01840
G1 X121.862 Y65.916 E4.05218
G1 X122.921 Y66.180 E4.08595
G1 X123.394 Y66.326 E4.10129
G1 X124.418 Y66.704 E4.13506
G1 X124.965 Y66.943 E4.15351
G1 X125.938 Y67.436 E4.18729
G1 X126.368 Y67.684 E4.20262
G1 X127.282 Y68.280 E4.23639
G1 X128.149 Y68.943 E4.27017
G1 X128.601 Y69.332 E4.28863
G1 X128.964 Y69.669 E4.30395
G1 X129.723 Y70.454 E4.33773
G1 X130.112 Y70.906 E4.35619
G1 X130.775 Y71.774 E4.38996
G1 X131.054 Y72.183 E4.40529
G1 X131.499 Y72.900 E4.43141
G1 X142.214 Y91.458 E5.09445
G1 X142.803 Y92.527 E5.13222
G1 X143.413 Y93.743 E5.17430
G1 X144.071 Y95.224 E5.22445
G1 X144.564 Y96.485 E5.26635
G1 X145.003 Y97.766 E5.30826
G1 X145.389 Y99.065 E5.35018
G1 X145.719 Y100.379 E5.39209
G1 X145.994 Y101.706 E5.43402
G1 X146.213 Y103.042 E5.47591
G1 X146.403 Y104.713 E5.52794
G1 X146.427 Y105.326 E5.54692
G1 X146.379 Y110.347 E5.70230
G1 X146.023 Y126.001 E6.18677
G1 X145.979 Y126.636 E6.20647
G1 X145.902 Y127.192 E6.22382
G1 X145.775 Y127.849 E6.24454
G1 X145.639 Y128.359 E6.26087
G1 X145.422 Y129.026 E6.28258
G1 X145.236 Y129.487 E6.29795
G1 X144.925 Y130.151 E6.32064
G1 X144.700 Y130.556 E6.33498
G1 X144.321 Y131.166 E6.35719
G1 X143.824 Y131.830 E6.38285
G1 X143.262 Y132.465 E6.40909
G1 X142.665 Y133.040 E6.43475
G1 X127.442 Y145.265 E7.03884
G1 X126.757 Y145.746 E7.06474
G1 X126.493 Y145.908 E7.07433
G1 X125.566 Y146.380 E7.10651
G1 X125.280 Y146.499 E7.11609
G1 X124.292 Y146.820 E7.14826
G1 X124.025 Y146.884 E7.15675
G1 X122.963 Y147.055 E7.19001
G1 X122.133 Y147.100 E7.21574
G1 X119.356 Y147.099 E7.30166
G1 X118.842 Y147.079 E7.31759
G1 X118.053 Y147.000 E7.34213
G1 X59.222 Y138.024 E9.18350
G1 X57.048 Y137.291 E9.25446
G1 X55.256 Y135.861 E9.32542
G1 X54.058 Y133.905 E9.39639
G1 X53.596 Y131.475 E9.47292
G1 X53.596 Y78.742 E11.10455
G1 X53.993 Y76.483 E11.17551
G1 X55.136 Y74.495 E11.24647
G1 X57.042 Y73.004 E11.32134
G1 E9.32134 F2400.00000
G92 E0
G1 X119.243 Y134.639 F7800.000
G1 E2.00000 F2400.00000
G1 X119.497 Y134.462 E2.00958 F1800.000
G1 X119.781 Y134.329 E2.01928
G1 X120.115 Y134.247 E2.02992
G1 X120.385 Y134.224 E2.03831 F1800.000
G1 X120.693 Y134.251 E2.04789
G1 X120.992 Y134.331 E2.05747
G1 X121.273 Y134.462 E2.06705
G1 X121.526 Y134.639 E2.07663
G1 X121.745 Y134.858 E2.08621
G1 X121.923 Y135.112 E2.09579
G1 X122.054 Y135.392 E2.10537
G1 X122.134 Y135.692 E2.11495
G1 X122.161 Y136.000 E2.12453
G1 X122.134 Y136.312 E2.13423
G1 X122.038 Y136.643 E2.14488
G1 X121.923 Y136.888 E2.15326
G1 X121.745 Y137.142 E2.16284
G1 X121.526 Y137.361 E2.17242
G1 X121.273 Y137.538 E2.18200
G1 X120.992 Y137.669 E2.19158
G1 X120.693 Y137.749 E2.20116
G1 X120.385 Y137.776 E2.21074
G1 X120.076 Y137.749 E2.22032
G1 X119.777 Y137.669 E2.22990
G1 X119.496 Y137.538 E2.23949
G1 X119.243 Y137.361 E2.24907
G1 X119.024 Y137.142 E2.25865
G1 X118.846 Y136.888 E2.26823
G1 X118.715 Y136.608 E2.27781
G1 X118.635 Y136.308 E2.28739
G1 X118.608 Y135.996 E2.29708
G1 X118.645 Y135.654 E2.30773
G1 X118.715 Y135.392 E2.31612
G1 X118.846 Y135.112 E2.32570
G1 X119.024 Y134.858 E2.33528
G1 X119.190 Y134.692 E2.34254
G1 X119.198 Y134.333 F7800.000
G1 E0.34254 F2400.00000
G92 E0
G1 X121.925 Y138.607 F7800.000
G1 E2.00000 F2400.00000
G1 X122.309 Y138.339 E2.01450 F1800.000
G1 X122.528 Y138.515 E2.02320
G1 X122.434 Y138.718 E2.03012
G1 X122.352 Y138.800 E2.03371
G1 X122.249 Y138.852 E2.03729
G1 X122.025 Y138.878 E2.04428
G1 X121.951 Y138.678 E2.05090
G1 X122.776 Y136.138 F7800.000
G1 X123.135 Y136.154 E2.06200 F1800.000
G1 X123.135 Y138.462 E2.13341
G1 X123.119 Y138.656 E2.13944
G1 X123.023 Y138.953 E2.14909
G1 X122.840 Y139.205 E2.15874
G1 X122.721 Y139.307 E2.16359
G1 X122.443 Y139.448 E2.17324
G1 X122.089 Y139.500 E2.18431
G1 X119.396 Y139.499 E2.26764
G1 X119.211 Y139.485 E2.27336
G1 X118.909 Y139.390 E2.28315
G1 X118.777 Y139.310 E2.28795
G1 X118.557 Y139.093 E2.29750
G1 X118.479 Y138.968 E2.30205
G1 X118.375 Y138.669 E2.31184
G1 X118.357 Y138.477 E2.31781
G1 X118.339 Y137.341 E2.35297
G1 X118.840 Y137.841 E2.37486
G1 X119.183 Y138.082 E2.38782
G1 X119.563 Y138.259 E2.40079
G1 X119.967 Y138.367 E2.41375
G1 X120.385 Y138.404 E2.42671
G1 X120.802 Y138.367 E2.43968
G1 X121.207 Y138.259 E2.45264
G1 X121.586 Y138.082 E2.46560
G1 X121.930 Y137.841 E2.47857
G1 X122.226 Y137.545 E2.49153
G1 X122.466 Y137.202 E2.50449
G1 X122.624 Y136.863 E2.51605
G1 X122.751 Y136.428 E2.53008
G1 X122.770 Y136.213 E2.53676
G1 E0.53676 F2400.00000
G92 E0
G1 X134.776 Y126.745 F7800.000
G1 E2.00000 F2400.00000
G1 X134.596 Y126.488 E2.00970 F1800.000
G1 X134.465 Y126.208 E2.01928
G1 X134.385 Y125.908 E2.02886
G1 X134.358 Y125.596 E2.03856
G1 X134.395 Y125.254 E2.04920
G1 X134.465 Y124.992 E2.05759
G1 X134.596 Y124.712 E2.06717
G1 X134.774 Y124.458 E2.07675
G1 X134.993 Y124.239 E2.08633
G1 X135.247 Y124.062 E2.09591
G1 X135.531 Y123.929 E2.10561
G1 X135.865 Y123.847 E2.11625
G1 X136.135 Y123.824 E2.12464 F1800.000
G1 X136.443 Y123.851 E2.13422
G1 X136.742 Y123.931 E2.14380
G1 X137.023 Y124.062 E2.15338
G1 X137.276 Y124.239 E2.16296
G1 X137.495 Y124.458 E2.17254
G1 X137.673 Y124.712 E2.18212
G1 X137.804 Y124.992 E2.19170
G1 X137.884 Y125.292 E2.20128
G1 X137.911 Y125.600 E2.21086
G1 X137.884 Y125.908 E2.22044
G1 X137.804 Y126.208 E2.23002
G1 X137.673 Y126.488 E2.23960
G1 X137.495 Y126.742 E2.24918
G1 X137.276 Y126.961 E2.25876
G1 X137.023 Y127.138 E2.26834
G1 X136.742 Y127.269 E2.27792
G1 X136.443 Y127.349 E2.28750
G1 X136.135 Y127.376 E2.29709
G1 X135.826 Y127.349 E2.30667
G1 X135.527 Y127.269 E2.31625
G1 X135.247 Y127.138 E2.32583
G1 X135.024 Y126.983 E2.33421
G1 X134.830 Y126.797 E2.34254
G1 X134.466 Y126.793 F7800.000
G1 E0.34254 F2400.00000
G92 E0
G1 X85.861 Y128.000 F7800.000
G1 E2.00000 F2400.00000
G1 X85.835 Y128.300 E2.00931 F1800.000
G1 X85.756 Y128.594 E2.01874
G1 X85.608 Y128.894 E2.02908
G1 X85.457 Y129.110 E2.03723
G1 X85.244 Y129.322 E2.04654
G1 X84.998 Y129.495 E2.05585
G1 X84.725 Y129.622 E2.06516
G1 X84.434 Y129.700 E2.07447
G1 X84.135 Y129.726 E2.08378
G1 X83.835 Y129.700 E2.09310
G1 X83.544 Y129.622 E2.10241
G1 X83.271 Y129.495 E2.11172
G1 X83.025 Y129.322 E2.12103
G1 X82.812 Y129.110 E2.13034
G1 X82.640 Y128.863 E2.13965
G1 X82.512 Y128.590 E2.14896
G1 X82.434 Y128.296 E2.15839
G1 X82.412 Y127.963 E2.16873
G1 X82.435 Y127.700 E2.17688
G1 X82.512 Y127.410 E2.18619
G1 X82.640 Y127.137 E2.19550
G1 X82.812 Y126.890 E2.20481
G1 X83.025 Y126.678 E2.21412
G1 X83.271 Y126.505 E2.22343
G1 X83.548 Y126.376 E2.23286
G1 X83.872 Y126.297 E2.24320
G1 X84.135 Y126.274 E2.25135 F1800.000
G1 X84.434 Y126.300 E2.26066
G1 X84.725 Y126.378 E2.26997
G1 X84.998 Y126.505 E2.27928
G1 X85.244 Y126.678 E2.28860
G1 X85.457 Y126.890 E2.29791
G1 X85.630 Y127.137 E2.30722
G1 X85.757 Y127.410 E2.31653
G1 X85.835 Y127.700 E2.32584
G1 X85.854 Y127.925 E2.33283
G1 X86.117 Y128.158 F7800.000
G1 X106.506 Y90.544 F7800.000
G1 X106.086 Y90.267 E2.34839 F1800.000
G1 X105.827 Y90.058 E2.35869
G1 X105.355 Y89.571 E2.37967
G1 X105.153 Y89.306 E2.38997
G1 X104.889 Y88.878 E2.40555
G1 X104.675 Y88.410 E2.42146
G1 X104.515 Y87.903 E2.43792
G1 X104.414 Y87.227 E2.45905
G1 X104.394 Y86.899 E2.46923
G1 X104.426 Y86.386 E2.48512
G1 X104.519 Y85.886 E2.50088
G1 X104.678 Y85.384 E2.51716
G1 X104.889 Y84.922 E2.53287
G1 X105.153 Y84.494 E2.54845
G1 X105.355 Y84.229 E2.55875
G1 X105.827 Y83.742 E2.57972
G1 X106.086 Y83.533 E2.59003
G1 X106.506 Y83.256 E2.60559
G1 X106.967 Y83.027 E2.62151
G1 X107.452 Y82.857 E2.63743
G1 X107.953 Y82.748 E2.65328
G1 X108.181 Y82.726 E2.66038
G1 X108.469 Y82.700 E2.66931 F1800.000
G1 X108.981 Y82.716 E2.68518
G1 X109.490 Y82.795 E2.70110
G1 X109.985 Y82.935 E2.71702
G1 X110.451 Y83.131 E2.73268
G1 X110.742 Y83.291 E2.74295
G1 X111.296 Y83.682 E2.76392
G1 X111.542 Y83.908 E2.77426
G1 X111.878 Y84.279 E2.78974
G1 X112.174 Y84.699 E2.80566
G1 X112.417 Y85.153 E2.82157
G1 X112.600 Y85.628 E2.83732
G1 X112.727 Y86.136 E2.85353
G1 X112.790 Y86.643 E2.86933
G1 X112.790 Y87.155 E2.88519
G1 X112.726 Y87.671 E2.90125
G1 X112.602 Y88.167 E2.91709
G1 X112.420 Y88.640 E2.93276
G1 X112.268 Y88.935 E2.94302
G1 X111.888 Y89.511 E2.96437
G1 X111.542 Y89.892 E2.98030
G1 X111.306 Y90.108 E2.99019
G1 X110.905 Y90.409 E3.00572
G1 X110.459 Y90.665 E3.02164
G1 X109.991 Y90.863 E3.03737
G1 X109.485 Y91.006 E3.05361
G1 X108.981 Y91.084 E3.06939
G1 X108.469 Y91.100 E3.08527
G1 X107.953 Y91.052 E3.10129
G1 X107.452 Y90.943 E3.11715
G1 X106.967 Y90.773 E3.13307
G1 X106.573 Y90.577 E3.14667
G1 X106.818 Y90.001 F7800.000
G1 X106.456 Y89.763 E3.16008 F1800.000
G1 X106.250 Y89.596 E3.16827
G1 X105.830 Y89.162 E3.18696
G1 X105.669 Y88.952 E3.19515
G1 X105.442 Y88.583 E3.20857
G1 X105.259 Y88.185 E3.22211
G1 X105.125 Y87.761 E3.23585
G1 X105.036 Y87.162 E3.25459
G1 X105.020 Y86.900 E3.26273
G1 X105.047 Y86.463 E3.27627
G1 X105.127 Y86.034 E3.28975
G1 X105.260 Y85.613 E3.30343
G1 X105.442 Y85.217 E3.31690
G1 X105.669 Y84.848 E3.33032
G1 X105.830 Y84.638 E3.33851
G1 X106.250 Y84.204 E3.35719
G1 X106.456 Y84.037 E3.36538
G1 X106.818 Y83.799 E3.37880
G1 X107.210 Y83.604 E3.39234
G1 X107.623 Y83.459 E3.40589
G1 X108.050 Y83.366 E3.41941
G1 X108.239 Y83.348 E3.42529
G1 X108.487 Y83.326 E3.43299 F1800.000
G1 X108.924 Y83.339 E3.44652
G1 X109.357 Y83.406 E3.46007
G1 X109.778 Y83.526 E3.47361
G1 X110.178 Y83.694 E3.48706
G1 X110.410 Y83.822 E3.49524
G1 X110.903 Y84.170 E3.51392
G1 X111.099 Y84.349 E3.52213
G1 X111.389 Y84.670 E3.53551
G1 X111.641 Y85.028 E3.54905
G1 X111.847 Y85.414 E3.56259
G1 X112.004 Y85.820 E3.57608
G1 X112.111 Y86.248 E3.58973
G1 X112.165 Y86.681 E3.60323
G1 X112.165 Y87.118 E3.61675
G1 X112.111 Y87.554 E3.63035
G1 X112.005 Y87.978 E3.64386
G1 X111.848 Y88.384 E3.65732
G1 X111.728 Y88.619 E3.66549
G1 X111.393 Y89.126 E3.68431
G1 X111.099 Y89.451 E3.69786
G1 X110.907 Y89.626 E3.70590
G1 X110.561 Y89.886 E3.71930
G1 X110.181 Y90.104 E3.73285
G1 X109.780 Y90.274 E3.74632
G1 X109.355 Y90.394 E3.75998
G1 X108.924 Y90.461 E3.77348
G1 X108.487 Y90.474 E3.78701
G1 X108.050 Y90.434 E3.80059
G1 X107.623 Y90.340 E3.81411
G1 X107.210 Y90.196 E3.82766
G1 X106.885 Y90.035 E3.83888
G1 X106.438 Y90.211 F7800.000
G1 X90.692 Y89.427 F7800.000
G1 X90.383 Y89.895 E3.85621 F1800.000
G1 X89.986 Y90.333 E3.87453
G1 X89.706 Y90.589 E3.88627
G1 X89.250 Y90.932 E3.90392
G1 X88.737 Y91.226 E3.92221
G1 X88.201 Y91.452 E3.94019
G1 X87.616 Y91.618 E3.95902
G1 X87.039 Y91.707 E3.97709
G1 X86.450 Y91.725 E3.99531
G1 X85.856 Y91.670 E4.01378
G1 X85.282 Y91.545 E4.03197
G1 X84.724 Y91.350 E4.05026
G1 X84.194 Y91.087 E4.06856
G1 X83.716 Y90.772 E4.08626
G1 X83.404 Y90.519 E4.09868
G1 X82.881 Y89.979 E4.12195
G1 X82.638 Y89.661 E4.13436
G1 X82.337 Y89.173 E4.15209
G1 X82.091 Y88.635 E4.17038
G1 X81.904 Y88.044 E4.18957
G1 X81.792 Y87.292 E4.21309
G1 X81.768 Y86.898 E4.22529
G1 X81.804 Y86.310 E4.24354
G1 X81.911 Y85.737 E4.26158
G1 X82.009 Y85.415 E4.27197
G1 X82.096 Y85.155 E4.28047
G1 X82.337 Y84.627 E4.29842
G1 X82.638 Y84.139 E4.31614
G1 X82.881 Y83.821 E4.32855
G1 X83.404 Y83.281 E4.35182
G1 X83.716 Y83.028 E4.36424
G1 X84.194 Y82.713 E4.38195
G1 X84.724 Y82.450 E4.40024
G1 X85.282 Y82.255 E4.41853
G1 X85.856 Y82.130 E4.43672
G1 X86.450 Y82.075 E4.45520
G1 X87.039 Y82.093 E4.47341
G1 X87.623 Y82.183 E4.49171
G1 X88.192 Y82.344 E4.51000
G1 X88.724 Y82.568 E4.52786
G1 X89.074 Y82.761 E4.54022
G1 X89.688 Y83.195 E4.56349
G1 X89.986 Y83.467 E4.57596
G1 X90.367 Y83.887 E4.59353
G1 X90.707 Y84.371 E4.61183
G1 X90.986 Y84.892 E4.63012
G1 X91.146 Y85.307 E4.64386
G1 X91.619 Y84.975 E4.66174
G1 X92.114 Y84.745 E4.67863
G1 X92.660 Y84.611 E4.69604
G1 X93.135 Y84.569 E4.71077
G1 X93.661 Y84.615 E4.72712
G1 X94.171 Y84.752 E4.74347
G1 X94.650 Y84.975 E4.75981
G1 X95.083 Y85.278 E4.77616
G1 X95.456 Y85.652 E4.79251
G1 X95.759 Y86.085 E4.80885
G1 X95.983 Y86.563 E4.82520
G1 X96.119 Y87.074 E4.84155
G1 X96.166 Y87.600 E4.85789
G1 X96.120 Y88.126 E4.87424
G1 X95.978 Y88.653 E4.89112
G1 X95.730 Y89.158 E4.90854
G1 X95.456 Y89.548 E4.92327
G1 X95.083 Y89.922 E4.93962
G1 X94.650 Y90.225 E4.95596
G1 X94.171 Y90.448 E4.97231
G1 X93.661 Y90.585 E4.98866
G1 X93.135 Y90.631 E5.00500
G1 X92.608 Y90.585 E5.02135
G1 X92.093 Y90.447 E5.03787
G1 X91.618 Y90.224 E5.05411
G1 X91.186 Y89.922 E5.07039
G1 X90.745 Y89.480 E5.08972
G1 X90.565 Y88.262 F7800.000
G1 X90.420 Y88.639 E5.10224 F1800.000
G1 X90.268 Y88.935 E5.11250
G1 X89.888 Y89.511 E5.13385
G1 X89.542 Y89.892 E5.14979
G1 X89.306 Y90.108 E5.15968
G1 X88.905 Y90.409 E5.17520
G1 X88.459 Y90.665 E5.19112
G1 X87.991 Y90.863 E5.20685
G1 X87.768 Y90.929 E5.21404
G1 X87.485 Y91.006 E5.22310
G1 X86.981 Y91.084 E5.23888
G1 X86.469 Y91.100 E5.25475
G1 X85.953 Y91.052 E5.27078
G1 X85.452 Y90.943 E5.28663
G1 X84.967 Y90.773 E5.30255
G1 X84.506 Y90.544 E5.31847
G1 X84.086 Y90.267 E5.33403
G1 X83.827 Y90.058 E5.34433
G1 X83.355 Y89.571 E5.36531
G1 X83.153 Y89.306 E5.37561
G1 X82.889 Y88.878 E5.39119
G1 X82.675 Y88.410 E5.40711
G1 X82.515 Y87.903 E5.42357
G1 X82.414 Y87.227 E5.44470
G1 X82.394 Y86.899 E5.45487
G1 X82.426 Y86.386 E5.47076
G1 X82.519 Y85.886 E5.48652
G1 X82.678 Y85.384 E5.50281
G1 X82.889 Y84.922 E5.51851
G1 X83.153 Y84.494 E5.53409
G1 X83.355 Y84.229 E5.54439
G1 X83.827 Y83.742 E5.56537
G1 X84.086 Y83.533 E5.57567
G1 X84.506 Y83.256 E5.59123
G1 X84.967 Y83.027 E5.60715
G1 X85.452 Y82.857 E5.62307
G1 X85.953 Y82.748 E5.63892
G1 X86.469 Y82.700 E5.65495
G1 X86.981 Y82.716 E5.67083
G1 X87.490 Y82.795 E5.68675
G1 X87.985 Y82.935 E5.70266
G1 X88.451 Y83.131 E5.71832
G1 X88.742 Y83.291 E5.72859
G1 X89.296 Y83.682 E5.74956
G1 X89.542 Y83.908 E5.75990
G1 X89.878 Y84.279 E5.77538
G1 X90.174 Y84.699 E5.79130
G1 X90.417 Y85.153 E5.80721
G1 X90.600 Y85.628 E5.82296
G1 X90.727 Y86.136 E5.83918
G1 X90.803 Y86.755 E5.85846
G1 X91.293 Y86.055 E5.88488
G1 X91.590 Y85.759 E5.89785
G1 X91.933 Y85.518 E5.91081
G1 X92.322 Y85.337 E5.92410
G1 X92.762 Y85.229 E5.93813
G1 X93.135 Y85.196 E5.94969
G1 X93.552 Y85.233 E5.96265
G1 X93.957 Y85.341 E5.97562
G1 X94.336 Y85.518 E5.98858
G1 X94.680 Y85.759 E6.00154
G1 X94.976 Y86.055 E6.01451
G1 X95.216 Y86.398 E6.02747
G1 X95.393 Y86.778 E6.04043
G1 X95.502 Y87.183 E6.05340
G1 X95.538 Y87.600 E6.06636
G1 X95.502 Y88.017 E6.07933
G1 X95.391 Y88.432 E6.09262
G1 X95.190 Y88.839 E6.10664
G1 X94.976 Y89.145 E6.11820
G1 X94.680 Y89.441 E6.13117
G1 X94.336 Y89.682 E6.14413
G1 X93.957 Y89.859 E6.15709
G1 X93.552 Y89.967 E6.17006
G1 X93.135 Y90.004 E6.18302
G1 X92.717 Y89.967 E6.19599
G1 X92.308 Y89.857 E6.20909
G1 X91.932 Y89.681 E6.22195
G1 X91.590 Y89.441 E6.23488
G1 X91.293 Y89.145 E6.24784
G1 X91.053 Y88.802 E6.26081
G1 X90.876 Y88.422 E6.27377
G1 X90.837 Y88.276 E6.27844
G1 X90.640 Y88.266 E6.28454
G1 X89.982 Y88.037 F7800.000
G1 X89.848 Y88.384 E6.29603 F1800.000
G1 X89.728 Y88.619 E6.30421
G1 X89.393 Y89.126 E6.32303
G1 X89.099 Y89.451 E6.33657
G1 X88.907 Y89.626 E6.34462
G1 X88.561 Y89.886 E6.35802
G1 X88.181 Y90.104 E6.37156
G1 X87.780 Y90.274 E6.38504
G1 X87.355 Y90.394 E6.39870
G1 X86.924 Y90.461 E6.41219
G1 X86.487 Y90.474 E6.42572
G1 X86.050 Y90.434 E6.43930
G1 X85.623 Y90.340 E6.45283
G1 X85.210 Y90.196 E6.46637
G1 X84.818 Y90.001 E6.47991
G1 X84.456 Y89.763 E6.49333
